X:124
T:Polska efter Petter Ola
R:sl\"angpolska
H:efter Petter Ola (1826-1891), J\"at
A:Sm{\aa}land
B:Sm{\aa}l\"andsk musiktradition 312
Z:id:hn-sp-124
M:3/4
L:1/16
K:Am
e4 d4 c4 | e2gg agff f2e2 | e2cc cddd e2c2 | dcBA ^G2A2 A4 :|
A2cc dcBA ^G2G2 | ^G2BB dcBc A2A2 | A2cc dcBA ^G2G2 | ^G2BB dcBc A4 | 
e4 d4 c4 | e2gg agff f2e2 | e2cc cddd e2c2 | dcBA ^G2A2 A4 ||
|: A2^G2 A2B2 c2A2 | c2B2 A2B2 E4 | C3B, A,2^G,2 A,2B,2 |
C2E2 D2F2 E2^G2 | A2^G2 A2B2 c2A2 | c2B2 A2B2 E4 | E2^G2 B2d2 c2B2 |
A4 a4 z4 :|
<end>
<start>
